X:1695
T:Duke of Leinster's Wife, The
O:england
E:7
R:reel
I:speed 350
M:C|
K:G
cA|(3.B.c.d cAG3B|AF~F2cF~F2|BdcAG2 ge|fdcA AG~G2|\
(3.B.c.d cAG3B|AF ~F2 cF~F2| BdcA G2 ge|fdcA AG~G2||
|fgaf g2fg|a2ag fdd2|fgaf gbag|fdcA AG~G2|\
fgaf g2fg|a3g fdde|fefg ~a3g|fdcA d2||


